X:9446
%9644
T:Lindisfarne
M:3/4
L:1/8
C:Matt Seattle
R:waltz
P:Lindisfarne
Z:bil@blueskiesink.com
K:Cmaj
G,2 \
| "C"C3 DEF | G3 ECG, | "Dm"A,2 F2 D2 | "G"C3 B, G,2 \
| "C"C3 DEF | G3 ECG, | "F"A,2 F2 E2 | "G7"D3 DEF |
| "C"G3 ECG, | "F"A,3 CFE | "Dm"D3 CB,A, | "G"G,3 DEF \
| "C"G3 ECG, | "Dm"A,2 F2 D2 | "G"G,C3 B,2 | "C"C4 
%Error : Bar 17 is 1/2 not 3/4
||
|| E2 \

%Error : Bar 19 is 1/4 not 3/4
| "G7"D3 EFD | "C"G3 ECG, | "Dm"A,2 F2 D2 | "G"C3 B, G,2 \
| "G7"D3 EFD | "C"G3 ECG, | "F"A,2 F2 E2 | "G7"D3 DEF |
| "C"G3 E
